X: 71
T: Father, Behold Me
C: Teton Sioux band 1911-1914
N: Derived from sioux071.krn
O: South Dakota, U.S.A.
N: Teton Sioux Music by Frances Densmore, 1918
Z: transcribed to **kern format by Craig Sapp
L: 1/16
M: 2/4
Q: 1/4=58
K: G clef=treble
%%linebreak <none>
G [I:setbarnb 1]| 
(A< G) G GG4 | 
A2< G2 A E3 | 
D8- | 
D7E[K:clef=bass] ||  
[M:3/4](E< D) E D4<<B,4G, ||  
[M:2/4]G,2< G,2-G,4- | 
G,7B, | 
(B,< G,) G, G,G,4 | 
B,2< G,2 G,2 F,2 | 
(F,8- | 
F,4D,3) G, ||  
[M:3/4]G,4(A,< G,) G,2 (G,2 D,2) | 
D,2 D,2- D,2 D,2-D,4 ||  
[M:2/4]D,8 | 
D,7 :|]  



